Simply-Blue-Circles/scalable/apps/display-im6.q16.svg

<svg xmlns="http://www.w3.org/2000/svg" width="48" height="48" viewBox="0 0 12.7 12.7"><path fill="#2c89a0" d="M6.344.073a6.29 6.29 0 0 0-6.29 6.29 6.29 6.29 0 0 0 6.29 6.288 6.29 6.29 0 0 0 6.29-6.289 6.29 6.29 0 0 0-6.29-6.29zm-.018.936a5.407 5.407 0 0 1 5.407 5.407 5.407 5.407 0 0 1-5.407 5.407A5.407 5.407 0 0 1 .92 6.416 5.407 5.407 0 0 1 6.326 1.01zm.148 1.755a.124.124 0 0 0-.124.124v.247a.124.124 0 0 0 .248 0v-.247a.124.124 0 0 0-.124-.124zm2.362.247a.854.854 0 1 0 0 1.707.854.854 0 0 0 0-1.707zm-3.599.124a.124.124 0 1 0 0 .248.124.124 0 0 0 0-.248zm.742.124a.124.124 0 0 0 0 .248h.247a.124.124 0 0 0 0-.248H5.98zm.742 0a.124.124 0 0 0 0 .247h.247a.124.124 0 1 0 0-.247h-.247zm2.349 0a.124.124 0 0 1 0 .248.123.123 0 0 1-.123-.124c0-.069.054-.124.123-.124zm-.476.125a.123.123 0 0 1 .012.241.252.252 0 0 0-.153.132c-.04.1-.004.247.105.427a.124.124 0 0 1 .004.125.124.124 0 0 1-.216.002c-.153-.255-.193-.473-.12-.65a.493.493 0 0 1 .32-.275.136.136 0 0 1 .048-.002zm-2.12.122a.124.124 0 0 0-.124.124v.247a.124.124 0 0 0 .248 0V3.63a.123.123 0 0 0-.124-.124zm1.128.742a.727.727 0 0 1-.196.678l-.533.536.183.183a.123.123 0 1 1-.175.174L6.7 5.636 4.282 8.063l.35.35.813-.817-.171-.17a.123.123 0 0 1 .002-.173.124.124 0 0 1 .173-.002l.17.17.69-.692-.17-.169a.124.124 0 0 1 .175-.175l.169.168 1.273-1.278a.721.721 0 0 1 .687-.187.62.62 0 0 0-.478-.226.12.12 0 0 1-.09-.037.124.124 0 0 1-.037-.09.623.623 0 0 0-.236-.487zm-1.004.124a.123.123 0 1 0 0 .247.123.123 0 0 0 0-.247zm-1.237.123a.124.124 0 0 0-.124.124v.247c0 .069.056.124.124.124a.123.123 0 0 0 .123-.124V4.62a.123.123 0 0 0-.123-.124zm-.495.495a.123.123 0 0 0-.123.123c0 .069.055.124.123.124h.247a.124.124 0 0 0 0-.248h-.247zm.742 0a.124.124 0 1 0 0 .247h.247a.124.124 0 0 0 0-.248h-.247zm3.957.123zm-4.204.124a.124.124 0 0 0-.124.124v.247a.123.123 0 0 0 .247 0v-.247a.123.123 0 0 0-.123-.124zm3.091.618a.123.123 0 1 0 0 .247.123.123 0 0 0 .124-.123.124.124 0 0 0-.124-.124zm.866 0a.124.124 0 0 0-.124.124v.247a.123.123 0 0 0 .247 0V5.98a.123.123 0 0 0-.123-.124zm-.495.494a.124.124 0 0 0 0 .249h.247a.124.124 0 0 0 0-.249h-.247zm.742 0a.124.124 0 0 0 0 .249h.247a.124.124 0 0 0 0-.249h-.247zm-.247.249a.123.123 0 0 0-.124.123v.247c0 .068.055.124.124.124a.123.123 0 0 0 .123-.124v-.247a.123.123 0 0 0-.123-.123zm-5.21 1.64l-.567.568.177.176a.125.125 0 0 1-.055.209.123.123 0 0 1-.12-.033l-.176-.177-.53.532a.247.247 0 1 0 .35.35l1.27-1.275-.35-.35z"/></svg>

<?xml version="1.0" encoding="UTF-8" standalone="no"?>
<svg
   xmlns:dc="http://purl.org/dc/elements/1.1/"
   xmlns:cc="http://creativecommons.org/ns#"
   xmlns:rdf="http://www.w3.org/1999/02/22-rdf-syntax-ns#"
   xmlns:svg="http://www.w3.org/2000/svg"
   xmlns="http://www.w3.org/2000/svg"
   xmlns:sodipodi="http://sodipodi.sourceforge.net/DTD/sodipodi-0.dtd"
   xmlns:inkscape="http://www.inkscape.org/namespaces/inkscape"
   width="48"
   height="48"
   viewBox="0 0 12.7 12.7"
   version="1.1"
   id="svg4"
   sodipodi:docname="display-im6.q16.svg"
   inkscape:version="0.92.4 (5da689c313, 2019-01-14)">
  <metadata
     id="metadata10">
    <rdf:RDF>
      <cc:Work
         rdf:about="">
        <dc:format>image/svg+xml</dc:format>
        <dc:type
           rdf:resource="http://purl.org/dc/dcmitype/StillImage" />
        <dc:title></dc:title>
      </cc:Work>
    </rdf:RDF>
  </metadata>
  <defs
     id="defs8" />
  <sodipodi:namedview
     pagecolor="#ffffff"
     bordercolor="#666666"
     borderopacity="1"
     objecttolerance="10"
     gridtolerance="10"
     guidetolerance="10"
     inkscape:pageopacity="0"
     inkscape:pageshadow="2"
     inkscape:window-width="1087"
     inkscape:window-height="480"
     id="namedview6"
     showgrid="false"
     inkscape:zoom="4.9166667"
     inkscape:cx="2.1355932"
     inkscape:cy="24"
     inkscape:window-x="0"
     inkscape:window-y="25"
     inkscape:window-maximized="0"
     inkscape:current-layer="svg4" />
  <path
     d="M 6.34,0.07 A 6.29,6.29 0 0 0 0.05,6.37 6.29,6.29 0 0 0 6.35,12.65 6.29,6.29 0 0 0 12.63,6.36 6.29,6.29 0 0 0 6.34,0.07 Z M 6.33,1.01 a 5.4,5.4 0 0 1 5.4,5.4 5.4,5.4 0 0 1 -5.4,5.41 A 5.4,5.4 0 0 1 0.92,6.42 5.4,5.4 0 0 1 6.32,1 Z M 6.47,2.76 A 0.12,0.12 0 0 0 6.35,2.89 v 0.25 a 0.125,0.125 0 0 0 0.25,0 V 2.89 A 0.12,0.12 0 0 0 6.47,2.76 Z m 2.37,0.25 a 0.85,0.85 0 1 0 0,1.7 0.85,0.85 0 0 0 0,-1.7 z m -3.6,0.13 a 0.12,0.12 0 1 0 0,0.24 0.12,0.12 0 0 0 0,-0.24 z m 0.74,0.12 a 0.125,0.125 0 0 0 0,0.25 h 0.25 a 0.125,0.125 0 0 0 0,-0.25 z m 0.74,0 a 0.125,0.125 0 0 0 0,0.25 h 0.25 a 0.125,0.125 0 1 0 0,-0.25 z m 2.35,0 a 0.125,0.125 0 0 1 0,0.25 A 0.12,0.12 0 0 1 8.95,3.38 C 8.95,3.31 9,3.26 9.07,3.26 Z M 8.59,3.38 A 0.12539936,0.12539936 0 0 1 8.61,3.63 0.25,0.25 0 0 0 8.45,3.76 c -0.04,0.1 0,0.24 0.1,0.42 a 0.12,0.12 0 0 1 0.01,0.13 0.12,0.12 0 0 1 -0.21,0 C 8.19,4.06 8.15,3.84 8.23,3.66 a 0.5,0.5 0 0 1 0.32,-0.27 0.14,0.14 0 0 1 0.04,0 z M 6.47,3.51 A 0.12,0.12 0 0 0 6.35,3.63 v 0.25 a 0.125,0.125 0 0 0 0.25,0 V 3.63 A 0.12,0.12 0 0 0 6.47,3.51 Z M 7.6,4.25 A 0.73,0.73 0 0 1 7.4,4.93 L 6.87,5.46 7.06,5.64 A 0.12727922,0.12727922 0 1 1 6.88,5.82 L 6.7,5.64 4.28,8.06 4.63,8.41 5.44,7.6 5.27,7.43 a 0.12,0.12 0 0 1 0,-0.18 0.12,0.12 0 0 1 0.18,0 L 5.62,7.42 6.31,6.72 6.14,6.56 A 0.12020815,0.12020815 0 0 1 6.31,6.39 L 6.48,6.55 7.76,5.28 A 0.72,0.72 0 0 1 8.44,5.08 0.62,0.62 0 0 0 7.96,4.86 0.12,0.12 0 0 1 7.87,4.82 0.12,0.12 0 0 1 7.84,4.73 0.62,0.62 0 0 0 7.6,4.25 Z m -1,0.12 a 0.125,0.125 0 1 0 0,0.25 0.125,0.125 0 0 0 0,-0.25 z M 5.36,4.49 A 0.12,0.12 0 0 0 5.24,4.62 v 0.25 c 0,0.06 0.05,0.12 0.12,0.12 A 0.12,0.12 0 0 0 5.48,4.87 V 4.62 A 0.12,0.12 0 0 0 5.36,4.5 Z m -0.5,0.5 A 0.12,0.12 0 0 0 4.74,5.11 c 0,0.07 0.06,0.13 0.13,0.13 h 0.24 a 0.125,0.125 0 0 0 0,-0.25 H 4.87 Z m 0.75,0 a 0.125,0.125 0 1 0 0,0.25 h 0.25 a 0.125,0.125 0 0 0 0,-0.25 H 5.6 Z M 9.57,5.11 Z M 5.37,5.24 A 0.12,0.12 0 0 0 5.24,5.36 v 0.25 a 0.12,0.12 0 0 0 0.24,0 V 5.36 A 0.12,0.12 0 0 0 5.36,5.24 Z M 8.45,5.85 A 0.125,0.125 0 1 0 8.45,6.1 0.12,0.12 0 0 0 8.58,5.98 0.12,0.12 0 0 0 8.45,5.85 Z m 0.87,0 A 0.12,0.12 0 0 0 9.19,5.98 v 0.25 a 0.125,0.125 0 0 0 0.25,0 V 5.98 A 0.12,0.12 0 0 0 9.32,5.86 Z m -0.5,0.5 a 0.125,0.125 0 0 0 0,0.25 h 0.25 a 0.125,0.125 0 0 0 0,-0.25 z m 0.75,0 a 0.125,0.125 0 0 0 0,0.25 h 0.24 a 0.125,0.125 0 0 0 0,-0.25 z M 9.32,6.6 A 0.12,0.12 0 0 0 9.19,6.72 v 0.25 c 0,0.07 0.06,0.12 0.13,0.12 A 0.12,0.12 0 0 0 9.44,6.97 V 6.72 A 0.12,0.12 0 0 0 9.32,6.6 Z M 4.1,8.24 3.53,8.81 3.71,8.98 A 0.13,0.13 0 0 1 3.65,9.19 0.12,0.12 0 0 1 3.53,9.16 L 3.36,8.98 2.83,9.51 A 0.25,0.25 0 1 0 3.18,9.86 L 4.46,8.6 4.11,8.25 Z"
     id="path2"
     inkscape:connector-curvature="0"
     style="fill:#2c89a0" />
</svg>
